X: 4186
T: LAMBERTON RACES
%R: reel
B: James Kerr "Merry Melodies" v.4 p.21 #186
Z: 2016 John Chambers <jc:trillian.mit.edu>
M: C|
L: 1/8
K: F
uA |\
FAcf afge | fdcA BGGA |\
FAcf afge | fdcB AFF :|\
|: c |\
AcFc AcFA |
Bc d/c/B/A/ BGGA |\
[1 FAcf afge | fdcB AFF :|\
[2 FAcf abga | fdcB AFF |]

%%sep 1 1 500
%%sep 1 1 500

